public/library/coinmetro-icon-light.svg

<svg width="42" height="42" viewBox="0 0 42 42" fill="none" xmlns="http://www.w3.org/2000/svg">
<circle cx="21" cy="21" r="20" fill="#FF4D15" stroke="white" stroke-width="2"/>
<path fill-rule="evenodd" clip-rule="evenodd" d="M26.7963 25.8122L27.4327 25.3256L31.3179 29.2039L30.5536 29.8482C28.4913 31.5858 25.8809 32.5373 23.1846 32.5342C23.0285 32.5342 22.8726 32.531 22.7161 32.5247C19.8387 32.4111 17.1103 31.215 15.0765 29.1756C10.6068 24.7058 10.6068 17.4308 15.0765 12.9591C17.2421 10.7924 20.1208 9.59961 23.1823 9.59961C26.2437 9.59961 29.1222 10.7933 31.2869 12.9591L29.9899 14.2566C28.171 12.4371 25.7532 11.4351 23.1811 11.4351C20.609 11.4351 18.191 12.4371 16.3723 14.2566C12.6184 18.013 12.6184 24.1241 16.3723 27.88C18.0807 29.5932 20.3727 30.598 22.7897 30.6934C24.8425 30.7798 26.8689 30.2049 28.5707 29.0533L27.2419 27.7266C24.2129 29.5769 20.2276 29.1418 17.6692 26.5825C16.9431 25.86 16.3675 25.0007 15.9756 24.0542C15.5838 23.1077 15.3834 22.0928 15.3862 21.0683C15.3834 20.0438 15.5837 19.0289 15.9757 18.0824C16.3676 17.1358 16.9433 16.2765 17.6694 15.5541C18.3916 14.8276 19.2505 14.2517 20.1967 13.8596C21.1428 13.4676 22.1573 13.2672 23.1813 13.2701C24.2054 13.2672 25.2199 13.4676 26.166 13.8597C27.1121 14.2517 27.9711 14.8276 28.6933 15.5541L27.3963 16.8515C26.8441 16.296 26.1873 15.8555 25.4638 15.5556C24.7403 15.2558 23.9645 15.1025 23.1813 15.1046C22.3982 15.1025 21.6224 15.2558 20.8989 15.5557C20.1754 15.8555 19.5186 16.296 18.9664 16.8515C18.4111 17.404 17.9709 18.0612 17.6712 18.785C17.3715 19.5088 17.2183 20.2849 17.2204 21.0683C17.2183 21.8517 17.3715 22.6278 17.6712 23.3516C17.9709 24.0754 18.4111 24.7326 18.9664 25.2851C21.0704 27.39 24.4361 27.6166 26.7963 25.8122ZM12.5035 10.3859L13.8004 11.6833C11.2946 14.1898 9.91452 17.5219 9.91452 21.0673C9.91452 24.6126 11.2946 27.9457 13.8004 30.4526L12.5035 31.7501C9.65074 28.8968 8.08008 25.1031 8.08008 21.068C8.08008 17.0328 9.6512 13.2391 12.5035 10.3859Z" fill="white"/>
</svg>

<svg xmlns="http://www.w3.org/2000/svg" width="42" height="42" fill="none" viewBox="0 0 42 42"><circle cx="21" cy="21" r="20" fill="#ff4d15" stroke="#fff" stroke-width="2"/><path fill="#fff" fill-rule="evenodd" d="m26.796 25.812.637-.486 3.885 3.878-.764.644a11.42 11.42 0 0 1-7.838 2.677 11.43 11.43 0 0 1-7.64-3.35c-4.47-4.47-4.47-11.744 0-16.216a11.39 11.39 0 0 1 8.106-3.36c3.062 0 5.94 1.194 8.105 3.36l-1.297 1.298a9.56 9.56 0 0 0-6.809-2.822 9.56 9.56 0 0 0-6.809 2.822c-3.754 3.756-3.754 9.867 0 13.623a9.6 9.6 0 0 0 6.418 2.813 9.6 9.6 0 0 0 5.78-1.64l-1.328-1.326a7.82 7.82 0 0 1-9.573-1.145 7.75 7.75 0 0 1-2.283-5.514 7.75 7.75 0 0 1 2.283-5.514 7.74 7.74 0 0 1 5.512-2.284 7.74 7.74 0 0 1 5.512 2.284l-1.297 1.298a5.92 5.92 0 0 0-4.215-1.747 5.92 5.92 0 0 0-4.215 1.747 5.93 5.93 0 0 0-1.746 4.216 5.93 5.93 0 0 0 1.746 4.217c2.104 2.105 5.47 2.332 7.83.527M12.504 10.386l1.296 1.297a13.19 13.19 0 0 0-3.885 9.384c0 3.546 1.38 6.879 3.885 9.386l-1.296 1.297A15 15 0 0 1 8.08 21.068a15 15 0 0 1 4.424-10.682" clip-rule="evenodd"/></svg>
